X: 27753
T: Morning Star, The
R: reel
M: 4/4
K: Bminor
e3d|:B2 c/B/A B2EF|GAB2 gfed|B2 c/B/A BEE2|dBAF G2GA:|
B/c/d ef g3f|g/f/e df eBB2|Bdef gfge|afdf e3A|
B/c/d ef g3f|g/f/e df eBB2|Bdef gfge|dfaf gfed||

